X:267
T:Roscommon
M:6/8
R:Jig
K:G
G|:|A2D FED|A2B cAF|G2E EDE|c2d cAG|A2 D FED|A2B cAF|GEE cEE|DDD D2:|:A|
d2e fed|e2d cAF|G2 E EDE|
